!!!COA:	Josquin des Prez
!!!CDT:	~1450-1521/08/27
!!!COM: Mouton
!!!OTL@@LAT:	Sancta trinitas
!!!AGN:	Motet
!!!SCT:	NJE 26.13
!!!SCA:	New Josquin Edition 26.13
!!!voices:	6
**kern	**kern	**kern	**kern	**kern	**kern
*staff6	*staff5	*staff4	*staff3	*staff2	*staff1
*Ivox	*Ivox	*Ivox	*Ivox	*Ivox	*Ivox
*I"Bassus	*I"Sextus	*I"Tenor	*I"Contratenor	*I"Discantus2	*I"Discantus1
*I'B	*I'Sx	*I'T	*I'Ct	*I'D2	*I'D1
*clefF4	*clefF4	*clefGv2	*clefG2	*clefG2	*clefG2
*k[b-]	*k[b-]	*k[b-]	*k[b-]	*k[b-]	*k[b-]
*M2/1	*M2/1	*M2/1	*M2/1	*M2/1	*M2/1
*met(C|)	*met(C|)	*met(C|)	*met(C|)	*met(C|)	*met(C|)
=1-	=1-	=1-	=1-	=1-	=1-
0F	0r	0F	0c	0cc	0f
=2	=2	=2	=2	=2	=2
0F	0r	0A	0c	0cc	0f
=3	=3	=3	=3	=3	=3
1.C	0r	1.c	1.e	1.cc	1.g
2C/	.	2c\	2e/	2cc\	2g/
=4	=4	=4	=4	=4	=4
0C	0r	0c	0e	0cc	0g
=5	=5	=5	=5	=5	=5
[0F	0r	0c	0f	0r	0a
=6	=6	=6	=6	=6	=6
1F]	0r	1c	1f	0r	1a
[1BB-	.	[1d	1f	.	1b-
=7	=7	=7	=7	=7	=7
1BB-]	0r	1d]	0f	0r	2b-\
.	.	.	.	.	2a/
1F	.	1c	.	.	[1a
=8	=8	=8	=8	=8	=8
0G	0r	0B-	1.d	0r	2a/]
.	.	.	.	.	4g/
.	.	.	.	.	4f/
.	.	.	.	.	1g
.	.	.	2e/	.	.
=9	=9	=9	=9	=9	=9
[0F	1r	0A	1.f	1cc	1a
.	1c	.	.	1a	[1cc
.	.	.	4e/	.	.
.	.	.	4d/	.	.
=10	=10	=10	=10	=10	=10
0F]	1A	0r	1c	1cc	2cc\]
.	.	.	.	.	2b-\
.	1F	.	1f	1cc	1a
=11	=11	=11	=11	=11	=11
0r	1.c	0r	1e	2.cc\	1g
.	.	.	.	4b-\	.
.	.	.	2c/	4a/	2e/
.	.	.	.	4g/	.
.	2B-\	.	[2d/	2b-\	[2f/
=12	=12	=12	=12	=12	=12
0r	1A	0r	4d/]	2cc\	4f/]
.	.	.	4c/	.	4e/
.	.	.	1c	2f/	4d/
.	.	.	.	.	4c/
.	1G	.	.	[1g	1d
.	.	.	2Bni/	.	.
=13	=13	=13	=13	=13	=13
1r	2r	1r	0c	1g]	0c
.	2c\	.	.	.	.
1F	2c\	1A	.	1r	.
.	4F\	.	.	.	.
.	4G\	.	.	.	.
=14	=14	=14	=14	=14	=14
1F	4A\	1A	0r	1c	0r
.	4B-\	.	.	.	.
.	1c	.	.	.	.
1D	.	1F	.	1d	.
.	2Bni\	.	.	.	.
=15	=15	=15	=15	=15	=15
2.C/	1c	2.G/	0r	1e	0r
4D\	.	4F/	.	.	.
2E\	2r	2G/	.	[1c	.
2F\	2F\	[2A/	.	.	.
=16	=16	=16	=16	=16	=16
2C/	2E\	2A/]	0r	2c/]	0r
1F	2D\	4G/	.	2B-/	.
.	.	4F/	.	.	.
.	1C	1G	.	[1c	.
2E\	.	.	.	.	.
=17	=17	=17	=17	=17	=17
0F	2r	0F	1r	1c]	1r
.	2c\	.	.	.	.
.	2A\	.	1f	2r	1a
.	4F\	.	.	2cc\	.
.	4G\	.	.	.	.
=18	=18	=18	=18	=18	=18
0r	4A\	0r	1f	1cc	1a
.	4B-\	.	.	.	.
.	2.c\	.	.	.	.
.	.	.	1d	1dd	1f
.	4Bni\	.	.	.	.
.	4Bni\	.	.	.	.
.	4A\	.	.	.	.
=19	=19	=19	=19	=19	=19
0r	1.c	0r	2.c/	1ee	2.g/
.	.	.	4d/	.	4f/
.	.	.	2e/	[1cc	2g/
.	2F\	.	2f/	.	[2a/
=20	=20	=20	=20	=20	=20
0r	2A\	0r	2c/	2cc\]	2a/]
.	2d\	.	1f	2b-\	4g/
.	.	.	.	.	4f/
.	1c	.	.	1cc	1g
.	.	.	2e/	.	.
=21	=21	=21	=21	=21	=21
1r	0F	1r	1.f	1a	2.f/
.	.	.	.	.	4g/
1F	.	1A	.	1r	4a/
.	.	.	.	.	4b-\
.	.	.	4e/	.	[2cc\
.	.	.	4d/	.	.
=22	=22	=22	=22	=22	=22
1F	0r	1A	2c/	1a	4cc\]
.	.	.	.	.	4b-\
.	.	.	1d	.	1a
1D	.	1F	.	1dd	.
.	.	.	2B-/	.	4g/
.	.	.	.	.	4f/
=23	=23	=23	=23	=23	=23
1.C	0r	2.G/	1c	1ee	2e/
.	.	.	.	.	2.g/
.	.	4F/	.	.	.
.	.	2G/	2r	1cc	.
.	.	.	.	.	4f/
[2F\	.	[2A/	2c/	.	4e/
.	.	.	.	.	4d/
=24	=24	=24	=24	=24	=24
2F\]	0r	2A/]	2A/	1r	2c/
4E\	.	4G/	2B-/	.	1f
4D\	.	4F/	.	.	.
1C	.	1G	1c	[1cc	.
.	.	.	.	.	2e/
=25	=25	=25	=25	=25	=25
0FF	1r	1F	0c	2cc\]	0f
.	.	.	.	2b-\	.
.	[1C	1r	.	1a	.
=26	=26	=26	=26	=26	=26
1r	1C]	0c	0r	2g/	0r
.	.	.	.	1cc	.
[1F	1AA	.	.	.	.
.	.	.	.	[2a/	.
=27	=27	=27	=27	=27	=27
1F]	1FF	1A	0r	2a/]	0r
.	.	.	.	1f	.
1D	1BB-	1B-	.	.	.
.	.	.	.	[2g/	.
=28	=28	=28	=28	=28	=28
1E	1C	2G/	0r	2g/]	0r
.	.	2.c\	.	2.e/	.
1C	2r	.	.	.	.
.	.	4B-\	.	4d/	.
.	[2c\	[2A/	.	2e/	.
=29	=29	=29	=29	=29	=29
1D	2c\]	2A/]	0r	2f/	0r
.	2B-\	4G/	.	2d/	.
.	.	4F/	.	.	.
2C/	2c\	2E/	.	2e/	.
[2D\	2A\	[2F/	.	4d/	.
.	.	.	.	4c/	.
=30	=30	=30	=30	=30	=30
2D\]	2B-\	2F/]	0r	2d/	0r
1C	2c\	2E/	.	2e/	.
.	1F	1D	.	1f	.
2BB-/	.	.	.	.	.
=31	=31	=31	=31	=31	=31
4C/	1r	2.C/	0r	0e	0r
4D\	.	.	.	.	.
4E\	.	.	.	.	.
4F\	.	4D/	.	.	.
2G\	2.C/	4E/	.	.	.
.	.	4F/	.	.	.
2E\	.	2G/	.	.	.
.	4BB-/	.	.	.	.
=32	=32	=32	=32	=32	=32
2F\	2AA/	2A/	0r	2r	0r
2G\	2GG/	2B-\	.	2.g/	.
2E\	2C/	2c\	.	.	.
.	.	.	.	4a/	.
[2F\	2BB-/	[2d\	.	2b-\	.
=33	=33	=33	=33	=33	=33
4F\]	1F	4d\]	0r	4a/	0r
4E\	.	4c\	.	4g/	.
4D\	.	1c	.	4f/	.
4C/	.	.	.	4e/	.
1D	2r	.	.	1f	.
.	2F\	2Bni\	.	.	.
=34	=34	=34	=34	=34	=34
0C	2G\	0c	1r	1e	1r
.	2A\	.	.	.	.
.	1G	.	1e	1r	1g
=35	=35	=35	=35	=35	=35
0r	2.F\	0r	2.f/	1r	2.a/
.	4C/	.	4e/	.	4g/
.	2F\	.	2f/	2r	2a/
.	2G\	.	2d/	2g/	2b-\
=36	=36	=36	=36	=36	=36
0r	1A	0r	1c	2e/	1cc
.	.	.	.	2f/	.
.	2.G\	.	2.d/	1g	[1b-
.	4A\	.	4c/	.	.
=37	=37	=37	=37	=37	=37
0r	2B-\	0r	2d/	2f/	2b-\]
.	2c\	.	2e/	4e/	4a/
.	.	.	.	4d/	4g/
.	1F	.	1f	[1c	1a
=38	=38	=38	=38	=38	=38
0r	2r	0r	1.e	1c]	2.g/
.	1C	.	.	.	.
.	.	.	.	.	4f/
.	.	.	.	1r	2g/
.	[2F\	.	4d/	.	[2a/
.	.	.	4c/	.	.
=39	=39	=39	=39	=39	=39
0r	2F\]	0r	1d	0r	2a/]
.	4E\	.	.	.	4g/
.	4D\	.	.	.	4f/
.	4E\	.	2c/	.	2.g/
.	4C/	.	.	.	.
.	[2G\	.	4d/	.	.
.	.	.	4c/	.	4a/
=40	=40	=40	=40	=40	=40
0r	2G\]	0r	4d/	1r	2b-\
.	.	.	4c/	.	.
.	2F\	.	4B-/	.	1a
.	.	.	4A/	.	.
.	1G	.	1B-	1d	.
.	.	.	.	.	2g/
=41	=41	=41	=41	=41	=41
0r	2r	1r	0A	1f	0a
.	2D\	.	.	.	.
.	1F	2r	.	2c/	.
.	.	2c\	.	[2f/	.
=42	=42	=42	=42	=42	=42
2r	2.BB-/	2.d\	0r	4f/]	0r
.	.	.	.	4e/	.
2F\	.	.	.	1d	.
.	4AA/	4c\	.	.	.
2.G\	2GG/	2.B-\	.	.	.
.	2GG/	.	.	[2g/	.
4F\	.	4A/	.	.	.
=43	=43	=43	=43	=43	=43
2.E\	2.C/	2G/	0r	4g/]	0r
.	.	.	.	4f/	.
.	.	2.c\	.	1e	.
4D\	4BB-/	.	.	.	.
1C	4AA/	.	.	.	.
.	4GG/	4B-\	.	.	.
.	2FF/	4A/	.	[2f/	.
.	.	4G/	.	.	.
=44	=44	=44	=44	=44	=44
1D	0r	2B-\	0r	4f/]	0r
.	.	.	.	4d/	.
.	.	1A	.	2.f/	.
[1C	.	.	.	.	.
.	.	.	.	4e/	.
.	.	4G/	.	[2e/	.
.	.	4F/	.	.	.
=45	=45	=45	=45	=45	=45
2C/]	0r	2E/	0r	2e/]	0r
4BB-/	.	2.G/	.	4d/	.
4AA/	.	.	.	4c/	.
2BB-/	.	.	.	2d/	.
.	.	4F/	.	.	.
2C/	.	4E/	.	2c/	.
.	.	4D/	.	.	.
=46	=46	=46	=46	=46	=46
2AA/	0r	2C/	0r	1cc	0r
4GG/	.	1F	.	.	.
4FF/	.	.	.	.	.
1GG	.	.	.	1b-	.
.	.	2E/	.	.	.
=47	=47	=47	=47	=47	=47
0FF	1F	1F	1r	0a	0r
.	1c	1r	1F	.	.
=48	=48	=48	=48	=48	=48
1r	1A	1F	0c	0r	1r
1C	1G	[1c	.	.	1g
=49	=49	=49	=49	=49	=49
0F	0r	1c]	1A	1cc	1.a
.	.	1A	[1d	[1ff	.
.	.	.	.	.	2g/
=50	=50	=50	=50	=50	=50
1D	1r	1.d	2d/]	1ff]	2.f/
.	.	.	2c/	.	.
.	.	.	.	.	4e/
[1G	[1GG	.	2.B-/	1b-	1d
.	.	2c\	.	.	.
.	.	.	4A/	.	.
=51	=51	=51	=51	=51	=51
2G\]	1GG]	2B-\	0G	1dd	1.g
2F\	.	2A/	.	.	.
2E\	[1C	1G	.	[1cc	.
2D\	.	.	.	.	2f/
=52	=52	=52	=52	=52	=52
2.C/	2C/]	1.c	1G	0cc]	2.e/
.	2D\	.	.	.	.
4BB-/	.	.	.	.	4d/
2AA/	1E	.	[1c	.	1c
2GG/	.	2B-\	.	.	.
=53	=53	=53	=53	=53	=53
0FF	1F	2.A/	2c/]	1r	1.cc
.	.	.	2B-/	.	.
.	.	4G/	.	.	.
.	[1c	1F	2.A/	[1a	.
.	.	.	.	.	2b-\
.	.	.	4G/	.	.
=54	=54	=54	=54	=54	=54
0F	2c\]	0c	1F	2a/]	2a/
.	2B-\	.	.	2b-\	2g/
.	1A	.	[1f	1cc	1f
=55	=55	=55	=55	=55	=55
2.BB-/	2.D\	1.d	1f]	1b-	1.b-
4C/	4E\	.	.	.	.
4D\	4F\	.	1f	1r	.
4E\	4G\	.	.	.	.
2F\	4A\	2c\	.	.	2a/
.	8G\L	.	.	.	.
.	8A\J	.	.	.	.
=56	=56	=56	=56	=56	=56
2G\	2B-\	1B-	2d/	0r	1g
2E\	2G\	.	2e/	.	.
1F	2A\	1A	1c	.	1f
.	2F\	.	.	.	.
=57	=57	=57	=57	=57	=57
1C	1c	1G	2r	0r	1e
.	.	.	1c	.	.
1D	1r	1F	.	.	[1f
.	.	.	2B-/	.	.
=58	=58	=58	=58	=58	=58
0C	1r	0G	0c	1r	2f/]
.	.	.	.	.	4e/
.	.	.	.	.	4d/
.	[1c	.	.	1g	1e
=59	=59	=59	=59	=59	=59
0FF	2c\]	0F	0A	1.cc	0f
.	4B-\	.	.	.	.
.	4A\	.	.	.	.
.	2c\	.	.	.	.
.	2d\	.	.	2a/	.
=60	=60	=60	=60	=60	=60
0r	2c\	0r	2r	2a/	2r
.	2F\	.	2f/	2cc\	2a/
.	2F\	.	2f/	2cc\	2a/
.	2c\	.	2e/	2cc\	2g/
=61	=61	=61	=61	=61	=61
1r	2F\	1r	2f/	2cc\	2a/
.	2B-\	.	2d/	2dd\	2b-\
2r	1A	2r	1c	2ee\	1cc
2F\	.	2A/	.	2cc\	.
=62	=62	=62	=62	=62	=62
2F\	0r	2A/	0r	2cc\	0r
2E\	.	2G/	.	2cc\	.
2F\	.	2A/	.	2cc\	.
2D\	.	2B-\	.	2dd\	.
=63	=63	=63	=63	=63	=63
1C	2r	1c	2r	2ee\	2r
.	2c\	.	2e/	2ee\	2g/
1r	2F\	1r	2f/	2cc\	2a/
.	2c\	.	2e/	2cc\	2g/
=64	=64	=64	=64	=64	=64
0r	2F\	0r	2f/	2cc\	2a/
.	2B-\	.	2d/	2dd\	2b-\
.	2A\	.	2c/	2ee\	2cc\
.	2d\	.	[2f/	2a/	[2dd\
=65	=65	=65	=65	=65	=65
0r	2B-\	0r	2f/]	2b-\	2dd\]
.	2c\	.	2e/	2a/	1cc
.	1G	.	1d	1g	.
.	.	.	.	.	2bni\
=66	=66	=66	=66	=66	=66
2r	0r	2r	0c	2r	1cc
2F\	.	2A/	.	2c/	.
2F\	.	2A/	.	2c/	1r
2E\	.	2G/	.	2c/	.
=67	=67	=67	=67	=67	=67
2F\	2r	2A/	0r	2c/	0r
2D\	2F\	2B-\	.	2d/	.
2C/	2G\	2c\	.	2e/	.
[2F\	4F\	[2d\	.	[2a/	.
.	4G\	.	.	.	.
=68	=68	=68	=68	=68	=68
4F\]	4A\	4d\]	0r	4a/]	0r
4E\	4B-\	4c\	.	4g/	.
4D\	2c\	1c	.	4f/	.
4C/	.	.	.	4e/	.
1D	1F	.	.	1f	.
.	.	2Bni\	.	.	.
=69	=69	=69	=69	=69	=69
1C	2r	1c	2r	2e/	2r
.	2c\	.	2e/	2cc\	2g/
1r	2A\	1r	1f	2.cc\	1a
.	2F\	.	.	.	.
.	.	.	.	4dd\	.
=70	=70	=70	=70	=70	=70
2r	0c	2r	1e	2ee\	1g
2C/	.	2G/	.	2e/	.
1F	.	1A	1r	1f	1r
=71	=71	=71	=71	=71	=71
1C	2r	1G	2r	2e/	2r
.	2c\	.	2e/	2cc\	2g/
1r	2A\	1r	1f	2.cc\	1a
.	2F\	.	.	.	.
.	.	.	.	4dd\	.
=72	=72	=72	=72	=72	=72
0r	1c	0r	2e/	1.ee	1g
.	.	.	1g	.	.
.	1C	.	.	.	1e
.	.	.	4f/	4dd\	.
.	.	.	4e/	4cc\	.
=73	=73	=73	=73	=73	=73
0r	1BB-	0r	4d/	1dd	1f
.	.	.	4c/	.	.
.	.	.	4B-/	.	.
.	.	.	4A/	.	.
.	2C/	.	2G/	2.cc\	1e
.	[2c\	.	[2A/	.	.
.	.	.	.	4b-\	.
=74	=74	=74	=74	=74	=74
0r	4c\]	0r	4A/]	2a/	1c
.	4B-\	.	4B-/	.	.
.	2A\	.	1c	2f/	.
.	2G\	.	.	1g	2d/
.	2G\	.	2Bni/	.	2d/
=75	=75	=75	=75	=75	=75
2r	1C	2r	0c	2r	0c
1C	.	2G/	.	1e	.
.	1r	1A	.	.	.
4BB-/	.	.	.	4d/	.
4AA/	.	.	.	4c/	.
=76	=76	=76	=76	=76	=76
2BB-/	0r	1G	0r	2d/	0r
2.C/	.	.	.	2e/	.
.	.	1E	.	2c/	.
4BB-/	.	.	.	.	.
4AA/	.	.	.	[2cc\	.
4GG/	.	.	.	.	.
=77	=77	=77	=77	=77	=77
4FF/	1c	1F	0r	4cc\]	0r
4GG/	.	.	.	4b-\	.
4AA/	.	.	.	2a/	.
4BB-/	.	.	.	.	.
4C/	1c	1E	.	[1g	.
4D\	.	.	.	.	.
[2E\	.	.	.	.	.
=78	=78	=78	=78	=78	=78
4E\]	1c	1C	0r	2g/]	0r
4D\	.	.	.	.	.
1C	.	.	.	4f/	.
.	.	.	.	4e/	.
.	1F	2D/	.	1f	.
2BB-/	.	2D/	.	.	.
=79	=79	=79	=79	=79	=79
0C	2r	1C	2r	1e	0r
.	2c\	.	2G/	.	.
.	1c	1r	1A	2r	.
.	.	.	.	2c/	.
=80	=80	=80	=80	=80	=80
0r	2B-\	2r	2G/	2d/	0r
.	4A\	2C/	1c	2e/	.
.	4G\	.	.	.	.
.	1F	1D	.	1f	.
.	.	.	2B-/	.	.
=81	=81	=81	=81	=81	=81
2r	2G\	1C	1c	1e	0r
2C/	1A	.	.	.	.
1D	.	1F	2A/	1r	.
.	4G\	.	2B-/	.	.
.	4F\	.	.	.	.
=82	=82	=82	=82	=82	=82
2C/	2G\	2E/	1c	0r	2r
2AA/	2A\	1F	.	.	2c/
1BB-	1D	.	1r	.	1d
.	.	2G/	.	.	.
=83	=83	=83	=83	=83	=83
1AA	1E	1.A	2r	1cc	1c
.	.	.	1c	.	.
1D	1r	.	.	1dd	1f
.	.	4G/	2B-/	.	.
.	.	4F/	.	.	.
=84	=84	=84	=84	=84	=84
2C/	1r	2G/	1c	2ee\	2e/
1F	.	2F/	.	2ff\	1a
.	1F	1c	2.c/	1cc	.
4E\	.	.	.	.	4g/
4D\	.	.	4d/	.	4f/
=85	=85	=85	=85	=85	=85
2C/	2E\	2c\	2e/	1r	4g/
.	.	.	.	.	4a/
1BB-	2D\	2.d\	2.f/	.	2.b-\
.	2F\	.	.	1dd	.
.	.	4c\	4e/	.	4a/
2BB-/	2G\	4B-\	2d/	.	4g/
.	.	4A/	.	.	4f/
=86	=86	=86	=86	=86	=86
2C/	1r	2G/	2c/	2ee\	4e/
.	.	.	.	.	4d/
2D\	.	2F/	2B-/	2dd\	1f
1C	2r	1G	1c	2ee\	.
.	2G\	.	.	[2cc\	2e/
=87	=87	=87	=87	=87	=87
0FF	1A	0F	2r	4cc\]	0f
.	.	.	.	4b-\	.
.	.	.	2F/	4a/	.
.	.	.	.	8g/L	.
.	.	.	.	8f/J	.
.	1c	.	1A	2e/	.
.	.	.	.	2c/	.
=88	=88	=88	=88	=88	=88
0r	2B-\	2r	2G/	2d/	0r
.	4A\	2C/	1c	2e/	.
.	4G\	.	.	.	.
.	1F	1D	.	1f	.
.	.	.	2B-/	.	.
=89	=89	=89	=89	=89	=89
2r	2G\	1C	1c	1e	0r
2C/	1A	.	.	.	.
1D	.	1F	2A/	1r	.
.	4G\	.	2B-/	.	.
.	4F\	.	.	.	.
=90	=90	=90	=90	=90	=90
2C/	2G\	2E/	1c	0r	2r
2AA/	2A\	1F	.	.	2c/
1BB-	1D	.	1r	.	1d
.	.	2G/	.	.	.
=91	=91	=91	=91	=91	=91
1AA	1E	1.A	2r	1cc	1c
.	.	.	1c	.	.
1D	1r	.	.	1dd	1f
.	.	4G/	2B-/	.	.
.	.	4F/	.	.	.
=92	=92	=92	=92	=92	=92
2C/	1r	2G/	1c	2ee\	2e/
1F	.	2F/	.	2ff\	1a
.	1F	1c	2.c/	1cc	.
4E\	.	.	.	.	4g/
4D\	.	.	4d/	.	4f/
=93	=93	=93	=93	=93	=93
2C/	2E\	2c\	2e/	1r	4g/
.	.	.	.	.	4a/
1BB-	2D\	2.d\	2.f/	.	2.b-\
.	2F\	.	.	1dd	.
.	.	4c\	4e/	.	4a/
2BB-/	2G\	4B-\	2d/	.	4g/
.	.	4A/	.	.	4f/
=94	=94	=94	=94	=94	=94
2C/	1r	2G/	2c/	2ee\	4e/
.	.	.	.	.	4d/
2D\	.	2F/	2B-/	2dd\	2.f/
1C	2r	1G	1c	2ee\	.
.	.	.	.	.	4e/
.	2G\	.	.	[2cc\	4e/
.	.	.	.	.	4d/
=95	=95	=95	=95	=95	=95
[0FFl	2A\	[0Fl	[0cl	4cc\]	[0fl
.	.	.	.	4b-\	.
.	2.c\	.	.	4a/	.
.	.	.	.	4g/	.
.	.	.	.	2a/	.
.	4B-\	.	.	.	.
.	4A\	.	.	2f/	.
.	4G\	.	.	.	.
=96	=96	=96	=96	=96	=96
0FF_	2A\	0F_	0c_	1.cc	0f_
.	2F\	.	.	.	.
.	[1c	.	.	.	.
.	.	.	.	4b-\	.
.	.	.	.	4a/	.
=97	=97	=97	=97	=97	=97
0FF_	2c\]	0F_	0c_	[0al	0f_
.	4B-\	.	.	.	.
.	4A\	.	.	.	.
.	2A\	.	.	.	.
.	2F\	.	.	.	.
=98	=98	=98	=98	=98	=98
0FF]	0Fl	0F]	0c]	0a]	0f]
==	==	==	==	==	==
*-	*-	*-	*-	*-	*-
!!!RDF**kern: l=long note in original notation
!!!RDF**kern: i=editorial accidental
!!!ENC:	Joel Chapman 2012/1/22
!!!END:	2012/01/22/
!!!EED:	Jesse Rodin
!!!EEV:	2012/02/02/
!!attribution-level@Jos: 5 (doubtful)
!!!ONB:	Translated from MusicXML and edited on 2012/02/02/ by Craig Sapp
!!muse2ps: C^@{COA}?\n@{SCT}^i2I150v95,95,95,95,95,130Q16
